svgs/sharp-light/hexagon-vertical-nft.svg

<svg xmlns="http://www.w3.org/2000/svg" viewBox="0 0 448 512"><!--! Font Awesome Pro 6.6.0 by @fontawesome - https://fontawesome.com License - https://fontawesome.com/license (Commercial License) Copyright 2024 Fonticons, Inc. --><path d="M224 475.1L416 365.4l0-218.9L224 36.9 32 146.6l0 218.9L224 475.1zM0 128L224 0 448 128l0 256L224 512 0 384 0 128zm79.8 32l8.2 0 11.9 0 3.4 11.4 24.5 81.7 0-77.1 0-16 32 0 0 16 0 160 0 16-16 0-7.8 0-11.9 0-3.4-11.4L95.8 257.8l0 78.2 0 16-32 0 0-16 0-160 0-16 16 0zm128 0l48 0 16 0 0 32-16 0-32 0 0 48 32 0 16 0 0 32-16 0-32 0 0 64 0 16-32 0 0-16 0-80 0-80 0-16 16 0zm96 0l32 0 32 0 16 0 0 32-16 0-16 0 0 144 0 16-32 0 0-16 0-144-16 0-16 0 0-32 16 0z"/></svg>

<svg xmlns="http://www.w3.org/2000/svg" viewBox="0 0 448 512"><!--! Font Awesome Pro 6.4.0 by @fontawesome - https://fontawesome.com License - https://fontawesome.com/license (Commercial License) Copyright 2023 Fonticons, Inc. --><path d="M224 475.1L416 365.4V146.6L224 36.9 32 146.6V365.4L224 475.1zM0 128L224 0 448 128V384L224 512 0 384V128zm79.8 32H88 99.9l3.4 11.4 24.5 81.7V176 160h32v16V336v16h-16H136 124.1l-3.4-11.4L95.8 257.8V336v16h-32V336 176 160h16zm128 0h48 16v32h-16-32v48h32 16v32h-16-32v64 16h-32V336 256 176 160h16zm96 0h32 32 16v32h-16-16V336v16h-32V336 192h-16-16V160h16z"/></svg>
